X:20
T:Roy Stewart's Reel. Ca1758.044
R:Reel
M:C|
L:1/8
Q:1/2=80
B:Cahusac,T. 24 Country Dances for the Year 1758
Z:vmp.Mike Hicken 2015 www.village-music-project.org.uk
N: * There is a repeat sign shown here in the original.
K:F
"^Last strain once" f|AF2A c2 d/c/B/A/|BG2A BGGd|AF2A c2 (d/c/B)| AF-Ff AFF :|
"*" e|f>gaf (gf)(af)|gdd^f gdde|=fgaf gfag|fdcB AF2A|
f>gaf gfaf|gdd^f gddg|(a/g/f) (g/f/d) (f/d/c) (d/c/A)| FAfc AFF |]
W:
W: The 1st. Cu. cast off hands 4 round with the
W: 3d. Cu. .|  cast up hands 4 round with the 2d.
W: Cu. :|  Cross over two Cu. lead up to the top
W: cast off :|  then turn contrary Corners with
W: your Right hand and Partners with your
W: Left .|  the other Corners the same :|
W: and lead thro Sides and turn :|

